portfolio-images/favicon.svg

<svg fill="none" height="16" viewBox="0 0 16 16" width="16" xmlns="http://www.w3.org/2000/svg"><rect fill="#1d0d1a" height="16" rx="2" width="16"/><path d="m3 4.35301c0-.06313.03567-.12084.09213-.14908l2.28727-1.14363c.05541-.0277.1206.01259.1206.07454v8.51216c0 .0631-.03567.1208-.09213.1491l-2.28727 1.1436c-.05541.0277-.1206-.0126-.1206-.0745z" fill="#b0a189"/><path d="m3.06946 4.33104c-.03528-.04117-.02249-.10453.026-.12877l2.28815-1.14408c.0684-.0342.15131-.01746.20108.04061l7.34581 8.57c.0353.0411.0225.1045-.026.1287l-2.2881 1.1441c-.0684.0342-.1513.0175-.2011-.0406z" fill="#e2d8c8"/><path d="m10.5 4.35301c0-.06313.0357-.12084.0921-.14908l2.2873-1.14363c.0554-.0277.1206.01259.1206.07454v8.51226c0 .0631-.0357.1208-.0921.149l-2.2873 1.1437c-.0554.0277-.1206-.0126-.1206-.0746z" fill="#b0a189"/></svg>

<svg width="16" height="16" viewBox="0 0 16 16" fill="none" xmlns="http://www.w3.org/2000/svg">
<rect width="16" height="16" rx="1" fill="black"/>
<path d="M3 4.35301C3 4.28988 3.03567 4.23217 3.09213 4.20393L5.3794 3.0603C5.43481 3.0326 5.5 3.07289 5.5 3.13484V11.647C5.5 11.7101 5.46433 11.7678 5.40787 11.7961L3.1206 12.9397C3.06519 12.9674 3 12.9271 3 12.8652V4.35301Z" fill="#9CA3AF"/>
<path d="M3.06946 4.33104C3.03418 4.28987 3.04697 4.22651 3.09546 4.20227L5.38361 3.05819C5.45201 3.02399 5.53492 3.04073 5.58469 3.0988L12.9305 11.6688C12.9658 11.7099 12.953 11.7733 12.9045 11.7975L10.6164 12.9416C10.548 12.9758 10.4651 12.9591 10.4153 12.901L3.06946 4.33104Z" fill="#F3F4F6"/>
<path d="M10.5 4.35301C10.5 4.28988 10.5357 4.23217 10.5921 4.20393L12.8794 3.0603C12.9348 3.0326 13 3.07289 13 3.13484V11.6471C13 11.7102 12.9643 11.7679 12.9079 11.7961L10.6206 12.9398C10.5652 12.9675 10.5 12.9272 10.5 12.8652V4.35301Z" fill="#9CA3AF"/>
</svg>
